;TIME:472.32
;Filament used:0.36041m
;Layer height:0.200
; HEADER_BLOCK_START
; generated by Creality_Print V5.1.6.10470 on 2025-05-04 at 16:18:08
; total layer number: 83
; filament_density: 1.24
; filament_diameter: 1.75
; max_z_height: 16.60
; HEADER_BLOCK_END

; MINX = 101.25
; MINY = 101.25
; MINZ = 0.00
; MAXX = 118.75
; MAXY = 118.75
; MAXZ = 16.56

; THUMBNAIL_BLOCK_START

;
; THUMBNAIL_BLOCK_END

; THUMBNAIL_BLOCK_START

;
; THUMBNAIL_BLOCK_END

; external perimeters extrusion width = 0.42mm
; perimeters extrusion width = 0.45mm
; infill extrusion width = 0.45mm
; solid infill extrusion width = 0.42mm
; top infill extrusion width = 0.42mm
; first layer extrusion width = 0.50mm

; EXECUTABLE_BLOCK_START
M73 P0 R7
M201 X5000 Y5000 Z500 E5000
M203 X500 Y500 Z30 E100
M204 P5000 R2500 T5000 ; sets acceleration (P, T) and retract acceleration (R), mm/sec^2
M205 X10.00 Y10.00 Z0.40 E5.00 ; sets the jerk limits, mm/sec
;TYPE:Custom
M220 S100 ;Reset Feedrate 
M221 S100 ;Reset Flowrate 
 
M140 S50 ;Set final bed temp 
G28 ;Home 
 
G92 E0 ;Reset Extruder 
G1 Z2.0 F3000 ;Move Z Axis up 
M104 S190 ;Set final nozzle temp 
G1 X-2.1 Y20 Z0.28 F5000.0 ;Move to start position 
M190 S50 ;Wait for bed temp to stabilize 
M109 S190 ;Wait for nozzle temp to stabilize 
G1 X-2.1 Y145.0 Z0.28 F1500.0 E15 ;Draw the first line 
G1 X-2.4 Y145.0 Z0.28 F5000.0 ;Move to side a little 
M73 P1 R7
G1 X-2.4 Y20 Z0.28 F1500.0 E30 ;Draw the second line 
G92 E0  ;Reset Extruder 
G1 E-1.0000 F1800 ;Retract a bit 
M73 P2 R7
G1 Z2.0 F3000 ;Move Z Axis up 
G1 E0.0000 F1800
G90
G21
M83 ; use relative distances for extrusion
M106 S0
;LAYER_CHANGE
;Z:0.2
;HEIGHT:0.2
;BEFORE_LAYER_CHANGE
;0.2
G92 E0

G1 E-1.2 F2400
;_SET_FAN_SPEED_CHANGING_LAYER
M204 P500
M205 X10 Y10
; printing object Chef+Button.stl id:0 copy 0
M204 T500
G1 X117.531 Y110.87 F9000
G1 Z.2
G1 E1.2 F1800
;TYPE:Inner wall
;WIDTH:0.499999
G1 X117.519 Y110.995 E.00452
G3 X117.516 Y108.968 I-7.516 J-1.001 E1.64682
G3 X117.577 Y110.345 I-8.409 J1.065 E.04982
G1 X117.534 Y110.831 E.01758
G1 X118.034 Y110.296 F9000
;TYPE:Outer wall
G1 F1800
G1 X118.034 Y110.365 E.00251
G3 X117.969 Y108.907 I-8.031 J-.372 E1.77106
G3 X118.031 Y109.636 I-8.862 J1.126 E.02643
M73 P3 R7
G1 X118.033 Y110.256 E.02237
G1 E-1.2 F2400
;WIPE_START
G1 F9000
G1 X118.034 Y110.365
G1 X117.973 Y111.055
G1 X117.851 Y111.743
G1 X117.722 Y112.225
;WIPE_END
G1 Z.4
G1 X113.907 Y103.631
G1 Z.4
G1 Z.2
G1 E1.2 F1800
;TYPE:Bottom surface
;WIDTH:0.511715
G1 F4800
G1 X115.23 Y104.954 E.06928
G3 X116.627 Y107.013 I-5.407 J5.169 E.09257
G1 X112.987 Y103.373 E.19063
G2 X111.946 Y102.996 I-2.677 J5.757 E.04104
G1 X117.004 Y108.054 E.26488
G1 X117.024 Y108.118 E.00248
G3 X117.183 Y108.896 I-4.536 J1.331 E.02944
G1 X111.105 Y102.818 E.31832
G2 X110.368 Y102.744 I-.789 J4.173 E.02745
G1 X117.253 Y109.628 E.36054
G3 X117.259 Y110.298 I-3.522 J.368 E.02482
G1 X109.702 Y102.741 E.39575
G2 X109.09 Y102.792 I-.015 J3.523 E.02277
G1 X117.208 Y110.91 E.42513
G3 X117.114 Y111.478 I-3.297 J-.255 E.02137
G1 X108.522 Y102.886 E.44997
G2 X107.989 Y103.017 I.478 J3.11 E.02034
G1 X116.983 Y112.011 E.47106
G3 X116.823 Y112.513 I-2.95 J-.669 E.01955
G1 X107.487 Y103.177 E.48892
G1 X107.018 Y103.372 E.01879
G1 X116.628 Y112.982 E.50331
G3 X116.408 Y113.424 I-2.639 J-1.04 E.01833
M73 P4 R7
G1 X106.576 Y103.592 E.51492
G2 X106.155 Y103.835 I1.178 J2.522 E.01799
G1 X116.165 Y113.845 E.52419
G3 X115.901 Y114.244 I-2.413 J-1.308 E.01774
G1 X105.756 Y104.099 E.53129
G1 X105.381 Y104.387 E.01751
G1 X115.613 Y114.619 E.53586
G3 X115.301 Y114.969 I-2.158 J-1.612 E.01741
G1 X105.031 Y104.699 E.53782
G2 X104.699 Y105.031 I1.729 J2.06 E.01738
G1 X114.969 Y115.301 E.53782
G3 X114.619 Y115.613 I-1.962 J-1.845 E.01741
G1 X104.387 Y105.381 E.53586
G1 X104.099 Y105.756 E.01751
G1 X114.244 Y115.901 E.53129
G3 X113.844 Y116.165 I-1.707 J-2.149 E.01774
G1 X103.835 Y106.156 E.52419
G2 X103.592 Y106.576 I2.279 J1.598 E.01799
G1 X113.424 Y116.408 E.51492
G3 X112.982 Y116.628 I-1.482 J-2.418 E.01833
G1 X103.372 Y107.018 E.5033
G1 X103.177 Y107.487 E.01879
G1 X112.513 Y116.823 E.48892
G3 X112.011 Y116.984 I-1.17 J-2.788 E.01955
G1 X103.016 Y107.989 E.47105
G2 X102.886 Y108.522 I2.979 J1.01 E.02034
G1 X111.478 Y117.114 E.44997
G3 X110.911 Y117.209 I-.85 J-3.319 E.02134
G1 X102.792 Y109.09 E.42518
G2 X102.741 Y109.702 I3.472 J.597 E.02277
M73 P5 R7
G1 X110.295 Y117.257 E.39562
G3 X109.632 Y117.256 I-.328 J-3.496 E.02461
G1 X102.747 Y110.372 E.36053
G2 X102.817 Y111.104 I4.434 J-.052 E.02728
G1 X108.895 Y117.182 E.31831
G3 X108.054 Y117.004 I1.586 J-9.554 E.03186
G1 X102.996 Y111.946 E.26487
G2 X103.374 Y112.987 I6.135 J-1.637 E.04104
G1 X107.013 Y116.626 E.19062
G1 X106.927 Y116.591 E.00347
G3 X104.953 Y115.229 I3.023 J-6.494 E.08923
G1 X103.632 Y113.908 E.06918
G1 X103.756 Y113.783 F9000
;TYPE:Gap infill
;WIDTH:0.137776
G1 F1800
G3 X103.59 Y113.567 I2.387 J-2.016 E.00204
G1 E-1.2 F2400
;WIPE_START
G1 F9000
G1 X103.756 Y113.783
;WIPE_END
G1 X106.71 Y116.199 Z.4
G1 X107.631 Y116.951 Z.4
G1 Z.2
G1 E1.2 F1800
;WIDTH:0.17878
G1 X107.44 Y116.824 E.00247
;WIDTH:0.198856
G1 X107.249 Y116.696 E.00283
G1 E-1.2 F2400
;WIPE_START
G1 F9000
G1 X107.44 Y116.824
;WIPE_END
G1 X110.184 Y114.172 Z.4
G1 X116.952 Y107.631 Z.4
G1 Z.2
G1 E1.2 F1800
;WIDTH:0.178859
G1 X116.824 Y107.44 E.00247
;WIDTH:0.198909
G1 X116.696 Y107.249 E.00283
G1 E-1.2 F2400
;WIPE_START
G1 F9000
G1 X116.824 Y107.44
;WIPE_END
G1 X114.394 Y104.497 Z.4
G1 X113.783 Y103.756 Z.4
G1 Z.2
G1 E1.2 F1800
;WIDTH:0.137786
G2 X113.567 Y103.59 I-2.015 J2.386 E.00204
; stop printing object Chef+Button.stl id:0 copy 0
;TIME_ELAPSED:26.700256

M106 S255
;LAYER_CHANGE
;Z:0.4
;HEIGHT:0.2
;BEFORE_LAYER_CHANGE
;0.4
G92 E0

G1 E-1.2 F2400
;WIPE_START
G1 F9000
G1 X113.783 Y103.756
;WIPE_END
;_SET_FAN_SPEED_CHANGING_LAYER
M204 P2500
; printing object Chef+Button.stl id:0 copy 0
M204 T2500
G1 X115.741 Y107.032 Z.4
G1 X117.993 Y110.799 Z.4
G1 E1.2 F1800
M204 P2000
;TYPE:Inner wall
;WIDTH:0.449999
G1 F5400
G1 X117.971 Y111.049 E.00808
G3 X117.971 Y108.951 I-7.967 J-1.05 E1.55592
G1 X118.032 Y109.649 E.02255
G3 X118.032 Y110.351 I-8.028 J.35 E.02256
G1 X117.996 Y110.759 E.01318
G1 X118.422 Y110.383 F9000
M204 P1000
;TYPE:Outer wall
;WIDTH:0.419999
G1 F3600
G1 X118.36 Y111.101 E.02146
G3 X118.36 Y108.899 I-8.356 J-1.101 E1.51154
G1 X118.424 Y109.632 E.02191
M73 P6 R7
G3 X118.425 Y110.343 I-8.42 J.367 E.02117
G1 E-1.2 F2400
;WIPE_START
G1 F9000
G1 X118.36 Y111.101
G1 X118.232 Y111.825
G1 X118.102 Y112.312
;WIPE_END
G1 Z.6
G1 X116.634 Y114.363
G1 Z.6
G1 Z.4
G1 E1.2 F1800
M204 P2500
;TYPE:Internal solid infill
;WIDTH:0.422247
G1 F7701
G1 X115.482 Y115.515 E.0488
G3 X113.548 Y116.912 I-5.305 J-5.304 E.07181
G1 X116.912 Y113.548 E.14255
G2 X117.328 Y112.596 I-8.443 J-4.255 E.03116
G1 X112.596 Y117.328 E.20054
G3 X111.837 Y117.551 I-1.654 J-4.228 E.02374
G1 X117.551 Y111.837 E.24216
G2 X117.683 Y111.168 I-3.753 J-1.087 E.02043
G1 X111.168 Y117.683 E.27606
G3 X110.562 Y117.753 I-.701 J-3.429 E.0183
G1 X117.753 Y110.562 E.30469
G1 X117.777 Y110.001 E.01682
G1 X110.001 Y117.777 E.3295
G1 X109.487 Y117.755 E.01542
G1 X117.755 Y109.487 E.35034
G2 X117.705 Y109 I-2.807 J.04 E.01468
G1 X109 Y117.705 E.36887
G3 X108.535 Y117.634 I.176 J-2.693 E.01411
G1 X117.634 Y108.535 E.38555
G1 X117.536 Y108.096 E.01348
G1 X108.096 Y117.536 E.40003
G3 X107.681 Y117.416 I.483 J-2.436 E.01299
G1 X117.416 Y107.681 E.41252
G2 X117.282 Y107.278 I-2.371 J.56 E.01274
G1 X107.278 Y117.282 E.42396
G1 X106.898 Y117.125 E.0123
G1 X117.125 Y106.898 E.43337
G2 X116.954 Y106.532 I-2.175 J.793 E.01211
G1 X106.532 Y116.954 E.44164
G1 X106.18 Y116.771 E.01192
G1 X116.771 Y106.18 E.4488
G2 X116.567 Y105.847 I-2.002 J.999 E.0117
G1 X105.847 Y116.567 E.45425
G3 X105.521 Y116.357 I1.039 J-1.97 E.01164
G1 X116.357 Y105.521 E.45917
G1 X116.124 Y105.217 E.01146
G1 X105.217 Y116.124 E.46216
G3 X104.921 Y115.884 I1.221 J-1.816 E.01144
G1 X115.884 Y104.921 E.46458
G1 X115.628 Y104.641 E.01138
G1 X104.641 Y115.628 E.46557
G3 X104.372 Y115.359 I1.399 J-1.667 E.01138
G1 X115.359 Y104.372 E.46557
G1 X115.079 Y104.116 E.01138
G1 X104.116 Y115.079 E.46458
G3 X103.876 Y114.783 I1.576 J-1.518 E.01144
G1 X114.783 Y103.876 E.46216
G1 X114.479 Y103.643 E.01146
G1 X103.643 Y114.479 E.45917
G3 X103.433 Y114.153 I1.76 J-1.365 E.01164
G1 X114.153 Y103.433 E.45425
G2 X113.82 Y103.229 I-1.332 J1.799 E.0117
G1 X103.229 Y113.82 E.4488
G1 X103.046 Y113.467 E.01192
M73 P7 R7
G1 X113.467 Y103.046 E.44163
G2 X113.102 Y102.875 I-1.158 J2.005 E.01211
G1 X102.875 Y113.102 E.43337
G1 X102.718 Y112.722 E.0123
G1 X112.722 Y102.718 E.42395
G2 X112.319 Y102.584 I-.963 J2.237 E.01274
G1 X102.584 Y112.319 E.41252
G3 X102.464 Y111.904 I2.315 J-.898 E.01299
G1 X111.904 Y102.464 E.40002
G1 X111.464 Y102.366 E.01348
G1 X102.366 Y111.464 E.38554
G3 X102.295 Y111 I2.622 J-.641 E.01411
G1 X111 Y102.295 E.36887
G2 X110.513 Y102.245 I-.527 J2.758 E.01468
G1 X102.245 Y110.513 E.35034
G1 X102.223 Y109.999 E.01542
G1 X109.999 Y102.223 E.3295
G1 X109.438 Y102.247 E.01682
G1 X102.247 Y109.438 E.30469
G3 X102.317 Y108.831 I3.499 J.095 E.0183
G1 X108.831 Y102.317 E.27605
G2 X108.163 Y102.449 I.419 J3.885 E.02043
G1 X102.449 Y108.163 E.24215
G3 X102.672 Y107.404 I4.451 J.894 E.02375
G1 X107.404 Y102.672 E.20053
G1 X107.34 Y102.692 E.00201
G2 X106.451 Y103.088 I1.819 J5.277 E.02919
G1 X103.088 Y106.451 E.14253
G3 X104.487 Y104.516 I6.707 J3.374 E.07186
G1 X105.637 Y103.366 E.04873
G1 X105.894 Y103.349 F9000
;TYPE:Gap infill
;WIDTH:0.0881695
G1 F3000
G1 X105.741 Y103.471 E.0007
G1 X103.026 Y106.641 F9000
;WIDTH:0.215092
G1 F3000
G1 X102.768 Y106.994 E.00594
G1 X113.359 Y116.974 F9000
;WIDTH:0.215091
G1 F3000
G1 X113.006 Y117.233 E.00594
G1 X116.652 Y114.106 F9000
;WIDTH:0.0881703
G1 F3000
G1 X116.529 Y114.258 E.0007
; stop printing object Chef+Button.stl id:0 copy 0
;TIME_ELAPSED:35.660671

;LAYER_CHANGE
;Z:0.6
;HEIGHT:0.2
;BEFORE_LAYER_CHANGE
;0.6
G92 E0

G1 E-1.2 F2400
;WIPE_START
G1 F9000
G1 X116.652 Y114.106
;WIPE_END
;_SET_FAN_SPEED_CHANGING_LAYER
; printing object Chef+Button.stl id:0 copy 0
G1 X118.085 Y110.904 Z.6
G1 E1.2 F1800
M204 P2000
;TYPE:Inner wall
;WIDTH:0.449999
G1 F5400
G1 X118.072 Y111.049 E.00468
G3 X118.132 Y109.647 I-8.068 J-1.049 E1.5986
G1 X118.131 Y110.369 E.02323
G1 X118.088 Y110.864 E.01596
G1 X118.514 Y110.489 F9000
M204 P1000
;TYPE:Outer wall
;WIDTH:0.419999
G1 F3600
G1 X118.461 Y111.1 E.01824
G3 X118.524 Y109.63 I-8.456 J-1.099 E1.55211
G1 X118.523 Y110.386 E.02253
G1 X118.517 Y110.45 E.00189
G1 E-1.2 F2400
;WIPE_START
G1 F9000
G1 X118.461 Y111.1
G1 X118.33 Y111.841
G1 X118.177 Y112.416
;WIPE_END
G1 Z.8
G1 X116.718 Y105.583
G1 Z.8
G1 Z.6
G1 E1.2 F1800
M204 P2500
;TYPE:Internal solid infill
;WIDTH:0.427009
G1 F7835
G1 X115.513 Y104.378 E.05172
G2 X113.587 Y102.995 I-5.241 J5.269 E.07223
G1 X117.005 Y106.413 E.14663
M73 P8 R7
G3 X117.424 Y107.375 I-8.491 J4.272 E.03187
G1 X112.624 Y102.575 E.20596
G2 X111.857 Y102.351 I-1.68 J4.323 E.02429
G1 X117.649 Y108.143 E.24855
G3 X117.782 Y108.82 I-3.798 J1.098 E.02094
G1 X111.18 Y102.218 E.28327
G2 X110.567 Y102.148 I-.708 J3.471 E.01876
G1 X117.852 Y109.433 E.3126
G1 X117.877 Y110.001 E.01725
G1 X109.999 Y102.123 E.33803
G1 X109.479 Y102.146 E.01581
G1 X117.854 Y110.521 E.35939
G3 X117.804 Y111.015 I-2.875 J-.043 E.01506
G1 X108.986 Y102.196 E.37839
G2 X108.515 Y102.268 I.179 J2.726 E.01447
G1 X117.73 Y111.484 E.3954
G1 X117.633 Y111.929 E.01384
G1 X108.07 Y102.367 E.41029
G2 X107.65 Y102.489 I.489 J2.466 E.01331
G1 X117.511 Y112.35 E.4231
G3 X117.375 Y112.758 I-2.4 J-.568 E.01306
G1 X107.242 Y102.625 E.43482
G1 X106.857 Y102.784 E.01261
G1 X117.216 Y113.143 E.44448
G3 X117.043 Y113.513 I-2.203 J-.803 E.01241
G1 X106.487 Y102.957 E.45294
G1 X106.13 Y103.143 E.01222
G1 X116.857 Y113.87 E.46029
G3 X116.651 Y114.207 I-2.027 J-1.012 E.012
G1 X105.793 Y103.349 E.46588
G2 X105.463 Y103.562 I1.052 J1.994 E.01194
G1 X116.438 Y114.537 E.47092
G1 X116.202 Y114.844 E.01175
G1 X105.156 Y103.798 E.47399
G2 X104.855 Y104.04 I1.237 J1.839 E.01173
G1 X115.96 Y115.145 E.47646
G1 X115.7 Y115.428 E.01166
G1 X104.572 Y104.3 E.47748
G2 X104.3 Y104.572 I1.416 J1.688 E.01167
G1 X115.428 Y115.7 E.47748
G1 X115.145 Y115.96 E.01166
G1 X104.04 Y104.855 E.47646
G2 X103.798 Y105.156 I1.596 J1.537 E.01173
G1 X114.844 Y116.202 E.47398
G1 X114.537 Y116.438 E.01175
G1 X103.562 Y105.463 E.47092
G2 X103.349 Y105.793 I1.78 J1.381 E.01194
G1 X114.207 Y116.651 E.46588
G3 X113.87 Y116.858 I-1.349 J-1.821 E.012
G1 X103.142 Y106.13 E.46029
G1 X102.957 Y106.487 E.01222
G1 X113.513 Y117.043 E.45294
G3 X113.142 Y117.216 I-1.173 J-2.03 E.01241
G1 X102.784 Y106.858 E.44447
G1 X102.625 Y107.242 E.01261
G1 X112.758 Y117.376 E.43482
G3 X112.35 Y117.511 I-.976 J-2.265 E.01306
M73 P9 R7
G1 X102.49 Y107.651 E.42307
G2 X102.367 Y108.07 I2.382 J.931 E.01328
G1 X111.929 Y117.633 E.41032
G1 X111.485 Y117.732 E.01382
G1 X102.268 Y108.515 E.39546
G2 X102.196 Y108.986 I2.684 J.654 E.01447
G1 X111.014 Y117.804 E.37837
G3 X110.521 Y117.854 I-.534 J-2.791 E.01505
G1 X102.146 Y109.479 E.35938
G1 X102.123 Y109.999 E.01581
G1 X110.001 Y117.877 E.33803
G1 X109.433 Y117.852 E.01725
G1 X102.148 Y110.567 E.3126
G2 X102.218 Y111.18 I3.541 J-.095 E.01876
G1 X108.82 Y117.782 E.28326
G3 X108.144 Y117.65 I.427 J-3.97 E.02091
G1 X102.351 Y111.857 E.24857
G2 X102.576 Y112.625 I4.504 J-.903 E.02433
G1 X107.374 Y117.423 E.20588
G1 X107.305 Y117.402 E.00221
G3 X106.412 Y117.004 I1.824 J-5.299 E.02968
G1 X102.996 Y113.588 E.14661
G2 X104.379 Y115.515 I6.655 J-3.319 E.07228
G1 X105.583 Y116.718 E.05164
G1 X105.849 Y116.741 F9000
;TYPE:Gap infill
;WIDTH:0.0881704
G1 F3000
G1 X105.688 Y116.612 E.00074
G1 X102.933 Y113.395 F9000
;WIDTH:0.21653
G1 F3000
G1 X102.673 Y113.04 E.00603
G1 X113.395 Y102.933 F9000
;WIDTH:0.216529
G1 F3000
G1 X113.042 Y102.674 E.006
G1 X116.742 Y105.85 F9000
;WIDTH:0.0881681
G1 F3000
G1 X116.613 Y105.689 E.00074
; stop printing object Chef+Button.stl id:0 copy 0
;TIME_ELAPSED:44.618309

;LAYER_CHANGE
;Z:0.8
;HEIGHT:0.2
;BEFORE_LAYER_CHANGE
;0.8
G92 E0

G1 E-1.2 F2400
;WIPE_START
G1 F9000
G1 X116.742 Y105.85
;WIPE_END
;_SET_FAN_SPEED_CHANGING_LAYER
; printing object Chef+Button.stl id:0 copy 0
G1 X117.698 Y109.544 Z.8
G1 X118.077 Y111.012 Z.8
G1 E1.2 F1800
M204 P2000
;TYPE:Inner wall
;WIDTH:0.449999
G1 F5400
G1 X118.076 Y111.019 E.00024
G3 X118.132 Y109.651 I-8.072 J-1.018 E1.59969
G1 X118.13 Y110.4 E.02409
G1 X118.081 Y110.972 E.01845
G1 X118.506 Y110.597 F9000
M204 P1000
;TYPE:Outer wall
;WIDTH:0.419999
G1 F3600
G1 X118.465 Y111.069 E.01412
G3 X118.524 Y109.634 I-8.46 J-1.068 E1.55315
G1 X118.522 Y110.417 E.02334
G1 X118.51 Y110.557 E.00418
G1 E-1.2 F2400
;WIPE_START
G1 F9000
G1 X118.465 Y111.069
G1 X118.33 Y111.832
G1 X118.148 Y112.52
;WIPE_END
G1 Z1
G1 X114.417 Y116.718
G1 Z1
G1 Z.8
G1 E1.2 F1800
M204 P2500
;TYPE:Internal solid infill
;WIDTH:0.427009
G1 F8042
G1 X115.622 Y115.513 E.05172
G2 X117.005 Y113.587 I-5.269 J-5.241 E.07223
G1 X113.587 Y117.005 E.14663
G3 X112.625 Y117.424 I-4.272 J-8.491 E.03187
G1 X117.424 Y112.625 E.20591
G2 X117.647 Y111.859 I-3.93 J-1.56 E.02425
G1 X111.857 Y117.649 E.24846
G3 X111.18 Y117.782 I-1.098 J-3.798 E.02094
G1 X117.784 Y111.178 E.28335
G2 X117.852 Y110.567 I-3.59 J-.711 E.01869
G1 X110.567 Y117.852 E.3126
M73 P10 R7
G1 X109.999 Y117.877 E.01725
G1 X117.877 Y109.999 E.33803
G1 X117.854 Y109.479 E.01581
G1 X109.479 Y117.854 E.35939
G3 X108.986 Y117.804 I.041 J-2.842 E.01505
G1 X117.804 Y108.986 E.37837
G2 X117.732 Y108.515 I-2.726 J.179 E.01447
G1 X108.515 Y117.732 E.39547
G1 X108.069 Y117.635 E.01384
G1 X117.633 Y108.07 E.41037
G2 X117.511 Y107.65 I-2.466 J.489 E.01331
G1 X107.652 Y117.508 E.42301
G3 X107.242 Y117.375 I.495 J-2.231 E.01311
G1 X117.375 Y107.242 E.43482
G1 X117.216 Y106.857 E.01261
G1 X106.857 Y117.216 E.44448
G3 X106.487 Y117.043 I.803 J-2.203 E.01241
G1 X117.043 Y106.487 E.45294
G1 X116.857 Y106.13 E.01222
G1 X106.13 Y116.857 E.46029
G3 X105.793 Y116.651 I1.012 J-2.027 E.012
G1 X116.651 Y105.793 E.46588
G2 X116.438 Y105.463 I-1.995 J1.052 E.01194
