;TIME:1959.61
;Filament used:2.29436m
;Layer height:0.200
; HEADER_BLOCK_START
; generated by Creality_Print V6.1.1.2277 on 2025-05-17 at 10:20:26
; total layer number: 130
; filament_density: 1.24
; filament_diameter: 1.75
; max_z_height: 26.00
; HEADER_BLOCK_END

; MINX = 89.17
; MINY = 94.73
; MINZ = 0.00
; MAXX = 130.83
; MAXY = 125.27
; MAXZ = 26.03

; THUMBNAIL_BLOCK_START

;
; THUMBNAIL_BLOCK_END

; THUMBNAIL_BLOCK_START

;
; THUMBNAIL_BLOCK_END

; external perimeters extrusion width = 0.42mm
; perimeters extrusion width = 0.45mm
; infill extrusion width = 0.45mm
; solid infill extrusion width = 0.42mm
; top infill extrusion width = 0.42mm
; support material extrusion width = 0.40mm
; first layer extrusion width = 0.50mm

; EXECUTABLE_BLOCK_START
M73 P0 R32
M201 X5000 Y5000 Z500 E5000
M203 X500 Y500 Z30 E100
M204 P5000 R2500 T5000 ; sets acceleration (P, T) and retract acceleration (R), mm/sec^2
M205 X10.00 Y10.00 Z0.40 E5.00 ; sets the jerk limits, mm/sec
;TYPE:Custom
M220 S100 ;Reset Feedrate 
M221 S100 ;Reset Flowrate 
 
M140 S50 ;Set final bed temp 
G28 ;Home 
 
G92 E0 ;Reset Extruder 
G1 Z2.0 F3000 ;Move Z Axis up 
M104 S190 ;Set final nozzle temp 
G1 X-2.1 Y20 Z0.28 F5000.0 ;Move to start position 
M190 S50 ;Wait for bed temp to stabilize 
M109 S190 ;Wait for nozzle temp to stabilize 
G1 X-2.1 Y145.0 Z0.28 F1500.0 E15 ;Draw the first line 
G1 X-2.4 Y145.0 Z0.28 F5000.0 ;Move to side a little 
G1 X-2.4 Y20 Z0.28 F1500.0 E30 ;Draw the second line 
G92 E0  ;Reset Extruder 
G1 E-1.0000 F1800 ;Retract a bit 
G1 Z2.0 F3000 ;Move Z Axis up 
G1 E0.0000 F1800
G90
G21
M83 ; use relative distances for extrusion
" "
G1 E-1.2 F2400
M106 S0
;LAYER_CHANGE
;Z:0.2
;HEIGHT:0.2
;BEFORE_LAYER_CHANGE
;0.2
G92 E0

;_SET_FAN_SPEED_CHANGING_LAYER
M204 P500
M205 X10 Y10
; printing object SOTSkullrepair.stl id:89510391234560318 copy 0
M204 T500
G1 Z.2 F9000
G1 X92 Y104.587
G1 E1.2 F1800
;TYPE:Support
;WIDTH:0.5
G1 X91.968 Y104.678 E.00349
G1 X91.966 Y104.675 E.00013
G1 X91.902 Y104.632 E.0028
G1 X91.946 Y104.606 E.00186
G1 E-1.2 F2400
;WIPE_START
G1 F1800
G1 X91.902 Y104.632
G1 X91.966 Y104.675
G1 X91.968 Y104.678
G1 X92 Y104.587
;WIPE_END
G1 X91.329 Y105.719 Z.4 F9000
G1 Z.2
G1 E1.2 F1800
;TYPE:Support interface
;WIDTH:0.4
G1 X91.626 Y105.54 E.00979
G1 X91.87 Y105.484 E.00706
G1 X92.001 Y105.422 E.00409
G1 X92.044 Y105.377 E.00175
G1 X92.729 Y106.062 E.02732
G1 X92.881 Y105.881 E.00668
G1 X92.996 Y105.815 E.00374
G1 X93.035 Y105.788 E.00134
G1 X93.117 Y105.724 E.00291
G1 X93.152 Y105.693 E.00134
G1 X93.301 Y105.538 E.00604
G1 X93.386 Y105.507 E.00257
G1 X92.441 Y104.562 E.03772
G1 X92.365 Y104.315 E.00728
G1 X92.364 Y104.162 E.00431
G1 X92.379 Y104.091 E.00205
G1 X92.434 Y103.947 E.00435
G1 X92.587 Y103.761 E.00678
G1 X92.758 Y103.667 E.00552
G1 X94.575 Y105.484 E.07249
G1 X94.592 Y105.48 E.00049
G1 X94.637 Y105.465 E.00134
G1 X94.733 Y105.426 E.00291
G1 X94.775 Y105.406 E.00133
G1 X95.02 Y105.265 E.00797
G1 X95.348 Y105.242 E.0093
G1 X95.552 Y105.324 E.0062
G1 X95.65 Y105.356 E.00291
G1 X95.662 Y105.359 E.00034
G1 X94.592 Y104.289 E.04267
G1 X95.027 Y104.245 E.01233
G1 X95.417 Y104.28 E.01105
G1 X95.796 Y104.352 E.01086
G1 X95.866 Y104.351 E.00199
G1 X96.709 Y105.194 E.03363
G1 X96.736 Y105.187 E.00078
G1 X96.781 Y105.173 E.00134
G1 X96.877 Y105.134 E.00291
G1 X96.919 Y105.113 E.00133
G1 X97.008 Y105.062 E.00291
G1 X97.048 Y105.035 E.00134
G1 X97.129 Y104.972 E.00291
G1 X97.164 Y104.94 E.00134
G1 X97.236 Y104.866 E.00291
G1 X97.266 Y104.829 E.00133
G1 X97.327 Y104.746 E.00291
G1 X97.352 Y104.706 E.00134
G1 X97.38 Y104.653 E.00169
G1 X96.758 Y104.031 E.0248
G1 X96.771 Y104.024 E.00039
G1 X96.964 Y103.936 E.00599
G1 X97.327 Y103.815 E.0108
G1 X97.346 Y103.601 E.00606
G1 X96.836 Y102.824 F9000
G1 F1800
G1 X97.094 Y102.963 E.00828
G1 X97.366 Y103.391 E.0143
G1 X97.363 Y103.423 E.00092
G1 X97.474 Y103.534 E.00442
G1 X97.54 Y103.384 E.00465
G1 X97.576 Y103.287 E.00291
G1 X97.589 Y103.241 E.00134
G1 X97.61 Y103.14 E.00291
G1 X97.617 Y103.093 E.00133
G1 X97.624 Y102.99 E.00291
G1 X97.624 Y102.943 E.00135
G1 X97.617 Y102.84 E.00291
G1 X97.61 Y102.793 E.00133
G1 X97.589 Y102.692 E.00291
G1 X97.576 Y102.647 E.00134
G1 X97.54 Y102.55 E.00291
G1 X97.521 Y102.506 E.00134
G1 X97.473 Y102.415 E.00291
G1 X97.448 Y102.375 E.00134
G1 X97.387 Y102.291 E.00291
G1 X97.357 Y102.255 E.00133
G1 X97.285 Y102.181 E.00291
G1 X97.25 Y102.149 E.00134
G1 X97.168 Y102.086 E.00291
G1 X97.129 Y102.059 E.00134
G1 X97.04 Y102.008 E.00291
G1 X96.997 Y101.987 E.00133
G1 X96.939 Y101.963 E.00177
G1 X96.853 Y101.914 E.00281
G1 X96.749 Y101.833 E.0037
G1 X96.71 Y101.806 E.00134
G1 X96.621 Y101.755 E.00291
G1 X96.578 Y101.734 E.00133
G1 X96.483 Y101.696 E.00291
G1 X96.438 Y101.681 E.00134
G1 X96.337 Y101.656 E.00292
G1 X96.29 Y101.648 E.00135
G1 X96.188 Y101.637 E.00291
G1 X96.141 Y101.635 E.00133
G1 X96.038 Y101.639 E.00291
G1 X95.99 Y101.644 E.00135
G1 X95.889 Y101.662 E.00291
G1 X95.843 Y101.673 E.00133
G1 X95.675 Y101.728 E.00497
G1 X95.688 Y101.748 E.00068
G1 X96.678 Y102.739 E.03952
G1 E-1.2 F2400
;WIPE_START
G1 F1800
G1 X95.688 Y101.748
G1 X95.675 Y101.728
G1 X95.843 Y101.673
G1 X95.889 Y101.662
G1 X95.99 Y101.644
G1 X96.038 Y101.639
G1 X96.141 Y101.635
G1 X96.188 Y101.637
G1 X96.238 Y101.642
;WIPE_END
G1 X93.881 Y104.644 Z.4 F9000
G1 X91.739 Y107.372 Z.4
G1 Z.2
G1 E1.2 F1800
G1 X91.921 Y106.871 E.01504
G1 X92.17 Y106.749 E.0078
G1 X92.192 Y106.737 E.00071
G1 X91.157 Y105.702 E.04127
G1 X90.807 Y105.632 E.01008
G1 X90.562 Y105.446 E.00868
G1 X90.368 Y105.388 E.00571
G1 X90.342 Y105.382 E.00075
G1 X90.102 Y105.408 E.00679
G1 X89.893 Y105.518 E.00668
G1 X89.832 Y105.59 E.00264
G1 X91.779 Y107.536 E.07764
G1 X91.834 Y107.66 E.00382
G1 X91.869 Y107.757 E.00291
G1 X91.882 Y107.802 E.00134
G1 X91.904 Y107.903 E.00291
G1 X91.91 Y107.95 E.00133
G1 X91.918 Y108.053 E.00291
G1 X91.918 Y108.101 E.00135
G1 X91.91 Y108.204 E.00291
G1 X91.904 Y108.25 E.00133
G1 X91.882 Y108.351 E.00291
G1 X91.869 Y108.397 E.00134
G1 X91.834 Y108.494 E.00291
G1 X91.815 Y108.537 E.00134
G1 X91.766 Y108.628 E.00291
G1 X91.741 Y108.669 E.00134
G1 X91.723 Y108.693 E.00084
G1 X90.759 Y107.728 E.03849
G1 X90.721 Y107.78 E.0018
G1 X90.616 Y107.941 E.00544
G1 X90.525 Y108.233 E.00864
G1 X90.262 Y108.443 E.0095
G1 X91.187 Y109.368 E.03689
G1 X91.183 Y109.372 E.00014
G1 X91.148 Y109.404 E.00134
G1 X91.113 Y109.431 E.00127
G1 X91.029 Y109.524 E.00353
G1 X90.982 Y109.6 E.00252
G1 X90.921 Y109.683 E.00291
G1 X90.891 Y109.719 E.00133
G1 X90.819 Y109.794 E.00291
G1 X90.784 Y109.825 E.00134
G1 X90.702 Y109.889 E.00291
G1 X90.663 Y109.916 E.00134
G1 X90.574 Y109.967 E.00291
G1 X90.574 Y109.967 E0
G1 X89.84 Y109.234 E.02925
G1 X89.835 Y109.246 E.00037
G1 X89.766 Y109.307 E.00261
G1 X89.694 Y109.415 E.00366
G1 X89.666 Y109.478 E.00193
G1 X89.641 Y109.605 E.00366
G1 X89.641 Y109.674 E.00193
G1 X89.664 Y109.792 E.00339
G1 X89.766 Y109.968 E.00576
G1 X89.924 Y110.087 E.00557
G1 X89.967 Y110.097 E.00125
G1 X90.038 Y110.085 E.00204
G1 X90.094 Y110.087 E.00157
G1 X90.141 Y110.085 E.00133
G1 X90.243 Y110.074 E.00291
G1 X90.29 Y110.066 E.00135
G1 X90.391 Y110.041 E.00292
G1 X90.409 Y110.035 E.00054
G1 E-1.2 F2400
;WIPE_START
G1 F1800
G1 X90.391 Y110.041
G1 X90.29 Y110.066
G1 X90.243 Y110.074
G1 X90.141 Y110.085
G1 X90.094 Y110.087
G1 X90.038 Y110.085
G1 X89.967 Y110.097
G1 X89.924 Y110.087
G1 X89.766 Y109.968
G1 X89.664 Y109.792
G1 X89.641 Y109.674
G1 X89.641 Y109.605
G1 X89.666 Y109.478
G1 X89.694 Y109.415
G1 X89.766 Y109.307
G1 X89.835 Y109.246
G1 X89.84 Y109.234
G1 X90.183 Y109.576
;WIPE_END
G1 X89.352 Y108.328 Z.4 F9000
G1 Z.2
G1 E1.2 F1800
;TYPE:Support
;WIDTH:0.5
G1 X89.453 Y108.463 E.00609
G1 X89.6 Y108.551 E.00619
G1 X89.667 Y108.572 E.00252
G1 X89.632 Y108.684 E.00426
G1 X89.486 Y108.983 E.01199
G1 X89.439 Y109.025 E.00227
G1 X89.317 Y109.208 E.00794
G1 X89.255 Y109.347 E.00551
G1 X89.212 Y109.563 E.00794
G1 X89.212 Y109.716 E.00551
G1 X89.258 Y109.945 E.00843
G1 X89.34 Y110.087 E.00595
G1 X89.246 Y110.123 E.00363
G1 X89.182 Y110.16 E.00268
G1 X89.102 Y110.226 E.00372
G1 X89.051 Y110.285 E.00281
G1 X89.006 Y110.361 E.00319
G1 X89.001 Y110.37 E.0004
G1 X88.951 Y110.464 E.00382
G1 X88.936 Y110.5 E.00143
G1 X88.896 Y110.626 E.00475
G1 X88.891 Y110.641 E.00057
G1 X88.867 Y110.738 E.00361
G1 X88.861 Y110.791 E.00192
G1 X88.86 Y111.008 E.00783
G1 X88.86 Y111.026 E.00064
G1 X88.865 Y111.082 E.00206
G1 X88.861 Y111.177 E.00342
G1 X88.865 Y111.223 E.00167
G1 X88.9 Y111.427 E.00748
G1 X88.904 Y111.445 E.00065
G1 X88.938 Y111.58 E.00505
G1 X88.947 Y111.606 E.00096
G1 X88.975 Y111.68 E.00288
G1 X88.984 Y111.7 E.0008
G1 X89.075 Y111.88 E.00727
G1 X89.08 Y111.889 E.00038
G1 X89.35 Y112.368 E.01983
G1 X89.487 Y112.624 E.01051
G1 X89.503 Y112.65 E.00108
G1 X89.631 Y112.828 E.00794
G1 X89.789 Y112.923 E.00664
G1 X90.059 Y112.961 E.00985
G1 X90.214 Y112.928 E.00574
G1 X90.33 Y112.856 E.00492
G1 X90.362 Y112.827 E.00157
G1 X90.359 Y112.911 E.00301
G1 X90.439 Y113.273 E.0134
G1 X90.613 Y113.517 E.0108
G1 X90.767 Y113.681 E.00814
G1 X90.963 Y113.768 E.00773
G1 X91.018 Y113.779 E.00203
G1 X91.159 Y113.906 E.00688
G1 X91.346 Y113.915 E.00674
G1 X89.468 Y115.182 E.0818
G1 X88.62 Y112.069 E.1165
G1 X87.492 Y112.494 E.04352
G1 X88.565 Y108.134 E.16211
G1 X89.285 Y108.311 E.02679
G1 E-1.2 F2400
;WIPE_START
G1 F1800
G1 X88.565 Y108.134
G1 X88.264 Y109.356
;WIPE_END
G1 X89.617 Y112.924 Z.4 F9000
G1 X90.193 Y114.444 Z.4
G1 Z.2
G1 E1.2 F1800
G1 X90.193 Y113.637 E.02915
G1 X90.056 Y113.443 E.00858
G1 X90.04 Y113.374 E.00255
G1 X89.685 Y113.324 E.01295
G1 X89.685 Y114.787 E.05282
G1 X88.67 Y110.68 F9000
G1 F1800
G1 X88.67 Y109.431 E.04513
G1 X88.162 Y111.494 E.07673
G1 X88.162 Y112.021 E.01904
G1 E-1.2 F2400
;WIPE_START
G1 F1800
G1 X88.162 Y111.494
G1 X88.514 Y110.064
;WIPE_END
G1 X90.794 Y112.747 Z.4 F9000
G1 Z.2
G1 E1.2 F1800
;TYPE:Support interface
;WIDTH:0.4
G1 X90.789 Y112.871 E.00349
G1 X90.839 Y113.096 E.00649
G1 X90.945 Y113.244 E.00514
G1 X91.02 Y113.324 E.00309
G1 X91.094 Y113.357 E.00228
G1 X91.218 Y113.382 E.00358
G1 X91.332 Y113.485 E.00434
G1 X91.546 Y113.494 E.00604
G1 X91.653 Y113.471 E.00308
G1 X90.756 Y112.574 E.03577
G1 X90.721 Y112.444 E.0038
G1 X90.727 Y112.441 E.00019
G1 X90.819 Y112.396 E.00291
G1 X90.863 Y112.378 E.00133
G1 X90.961 Y112.346 E.00291
G1 X91.007 Y112.335 E.00133
G1 X91.045 Y112.328 E.00109
G1 X91.093 Y112.316 E.0014
G1 X91.223 Y112.274 E.00385
G1 X91.269 Y112.262 E.00133
G1 X91.371 Y112.244 E.00291
G1 X91.418 Y112.239 E.00135
G1 X91.521 Y112.236 E.00291
G1 X91.568 Y112.237 E.00133
G1 X91.639 Y112.245 E.00202
G1 X94.289 Y114.894 E.10569
G1 X94.217 Y114.913 E.0021
G1 X94.039 Y114.914 E.00503
G1 X93.889 Y114.902 E.00423
G1 X93.569 Y114.793 E.00956
G1 X93.291 Y114.595 E.00962
G1 X93.182 Y114.469 E.00471
G1 X93.089 Y114.331 E.00469
G1 X93.021 Y114.181 E.00464
G1 X92.97 Y114.014 E.00493
G1 X92.964 Y113.973 E.00116
G1 X93.557 Y113.758 F9000
G1 F1800
G1 X93.867 Y113.952 E.01033
G1 X94.116 Y113.926 E.00706
G1 X94.219 Y113.923 E.00291
G1 X94.266 Y113.924 E.00133
G1 X94.299 Y113.928 E.00093
G1 X94.324 Y113.93 E.0007
G1 X94.399 Y113.932 E.00213
G1 X94.502 Y113.943 E.00291
G1 X94.549 Y113.951 E.00135
G1 X94.561 Y113.954 E.00035
G1 X95.681 Y115.075 E.0447
G1 X95.805 Y115.151 E.00409
G1 X95.99 Y115.231 E.0057
G1 X96.427 Y115.522 E.0148
G1 X96.397 Y115.79 E.0076
G1 X97.155 Y116.549 E.03026
G1 X97.164 Y116.524 E.00074
G1 X97.177 Y116.479 E.00134
G1 X97.199 Y116.378 E.00291
G1 X97.205 Y116.331 E.00133
G1 X97.213 Y116.228 E.00291
G1 X97.213 Y116.18 E.00135
G1 X97.205 Y116.077 E.00291
G1 X97.199 Y116.031 E.00133
G1 X97.185 Y115.964 E.00192
G1 X97.185 Y115.814 E.00423
G1 X97.197 Y115.754 E.00173
G1 X97.204 Y115.707 E.00133
G1 X97.211 Y115.604 E.00291
G1 X97.211 Y115.557 E.00135
G1 X97.204 Y115.454 E.00291
G1 X97.197 Y115.407 E.00133
G1 X97.19 Y115.371 E.00103
G1 X96.079 Y114.26 E.04433
G1 X96.062 Y114.252 E.00052
G1 X95.967 Y114.213 E.00291
G1 X95.921 Y114.199 E.00134
G1 X95.821 Y114.174 E.00292
G1 X95.774 Y114.165 E.00135
G1 X95.672 Y114.155 E.00291
G1 X95.64 Y114.154 E.00088
G1 X95.566 Y114.143 E.00212
G1 E-1.2 F2400
;WIPE_START
G1 F1800
G1 X95.64 Y114.154
G1 X95.672 Y114.155
G1 X95.774 Y114.165
G1 X95.821 Y114.174
G1 X95.921 Y114.199
G1 X95.967 Y114.213
G1 X96.062 Y114.252
G1 X96.079 Y114.26
G1 X97.119 Y115.3
;WIPE_END
G1 X96.377 Y115.968 Z.4 F9000
G1 Z.2
G1 E1.2 F1800
G1 X96.373 Y116.005 E.00104
G1 X96.389 Y116.387 E.0108
G1 X96.453 Y116.723 E.00963
G1 X96.353 Y116.958 E.00723
G1 X96.58 Y117.186 E.00909
G1 X96.49 Y117.223 E.00275
G1 X96.445 Y117.237 E.00134
G1 X96.345 Y117.262 E.00292
G1 X96.298 Y117.271 E.00135
G1 X96.195 Y117.281 E.00291
G1 X96.173 Y117.282 E.00064
G1 X96.187 Y117.273 E.00047
G1 X96.267 Y117.157 E.00398
G1 X96.282 Y117.122 E.00108
G1 E-1.2 F2400
;WIPE_START
G1 F1800
G1 X96.267 Y117.157
G1 X96.187 Y117.273
G1 X96.173 Y117.282
G1 X96.195 Y117.281
G1 X96.298 Y117.271
G1 X96.345 Y117.262
G1 X96.445 Y117.237
G1 X96.49 Y117.223
G1 X96.58 Y117.186
G1 X96.353 Y116.958
G1 X96.453 Y116.723
G1 X96.389 Y116.387
G1 X96.373 Y116.005
G1 X96.377 Y115.968
;WIPE_END
G1 X100.066 Y114.989 Z.4 F9000
G1 X115.047 Y111.011 Z.4
G1 Z.2
M73 P1 R32
M73 P1 R32
G1 E1.2 F1800
G1 X115.042 Y111.012 E.00014
G1 X114.898 Y110.99 E.0041
G1 X114.89 Y110.984 E.00029
G1 X114.852 Y110.824 E.00464
G1 X114.848 Y110.801 E.00066
G1 X114.81 Y110.566 E.00673
G1 X114.808 Y110.549 E.00046
G1 X114.802 Y110.5 E.00142
G1 X114.799 Y110.479 E.00058
G1 X114.794 Y110.451 E.00082
G1 X114.869 Y110.481 E.00228
G1 X115.032 Y110.461 E.00462
G1 X115.161 Y110.507 E.00387
G1 X115.252 Y110.606 E.00379
G1 X115.285 Y110.737 E.00379
G1 X115.252 Y110.867 E.00379
G1 X115.16 Y110.968 E.00385
G1 X115.097 Y110.992 E.00191
G1 E-1.2 F2400
;WIPE_START
G1 F1800
G1 X115.16 Y110.968
G1 X115.252 Y110.867
G1 X115.285 Y110.737
G1 X115.252 Y110.606
G1 X115.161 Y110.507
G1 X115.032 Y110.461
G1 X114.869 Y110.481
G1 X114.794 Y110.451
G1 X114.799 Y110.479
G1 X114.802 Y110.5
G1 X114.808 Y110.549
G1 X114.81 Y110.566
G1 X114.848 Y110.801
G1 X114.852 Y110.824
G1 X114.89 Y110.984
G1 X114.898 Y110.99
G1 X115.042 Y111.012
G1 X115.047 Y111.011
;WIPE_END
G1 X116.727 Y110.811 Z.4 F9000
G1 Z.2
G1 E1.2 F1800
G1 X116.794 Y111.076 E.00771
G1 X117.314 Y111.718 E.02329
G1 X117.36 Y111.811 E.00293
G1 X117.584 Y112.093 E.01015
G1 X117.793 Y112.217 E.00685
G1 X118.181 Y112.594 E.01527
G1 X118.757 Y112.794 E.01719
G1 X118.881 Y112.821 E.00359
G1 X119.051 Y112.99 E.00677
G1 X118.929 Y112.972 E.00346
G1 X118.493 Y112.915 E.01242
G1 X117.896 Y112.682 E.01809
G1 X117.351 Y112.359 E.01787
G1 X117.272 Y112.262 E.00352
G1 X117.238 Y112.215 E.00162
G1 X117.122 Y112.076 E.00512
G1 X117.064 Y111.999 E.00272
G1 X117.029 Y111.932 E.00212
G1 X117.011 Y111.888 E.00134
G1 X116.965 Y111.801 E.00277
G1 X116.948 Y111.759 E.00129
G1 X116.833 Y111.534 E.00714
G1 X116.731 Y111.321 E.00665
G1 X116.632 Y111.063 E.0078
G1 X116.616 Y111.027 E.00111
G1 X116.604 Y110.985 E.00121
G1 X116.564 Y110.891 E.0029
G1 X116.469 Y110.641 E.00754
G1 X116.463 Y110.621 E.00057
G1 X116.442 Y110.382 E.00679
G1 X116.696 Y110.636 E.01014
G1 X116.623 Y110.063 E.01628
G1 X116.602 Y109.487 E.01628
G1 X116.608 Y109.335 E.00428
G1 X116.446 Y109.173 E.00645
G1 X116.491 Y109.024 E.00441
G1 X116.582 Y108.681 E.01
G1 X116.633 Y108.56 E.00369
G1 X116.674 Y108.442 E.00354
G1 X116.717 Y108.341 E.00309
G1 X116.747 Y108.262 E.00237
G1 X116.933 Y108.448 E.00741
G1 X117.06 Y108.231 E.0071
G1 X117.445 Y107.748 E.01742
G1 X117.202 Y107.505 E.0097
G1 X117.295 Y107.374 E.00454
G1 X117.323 Y107.352 E.001
G1 X117.973 Y107.065 E.02005
G1 X118.069 Y107.16 E.0038
G1 X118.157 Y107.096 E.00308
G1 X118.981 Y106.861 E.02418
G1 X118.907 Y106.786 E.00295
G1 X119.025 Y106.768 E.00335
G1 X119.649 Y106.654 E.0179
G1 X119.709 Y106.661 E.00171
G1 X119.5 Y106.712 E.00608
G1 X119.153 Y106.811 E.01017
G1 X119.858 Y106.677 F9000
G1 F1800
G1 X119.781 Y106.666 E.00219
G1 X120.008 Y106.682 E.0064
G1 X120.016 Y106.683 E.00024
G1 X120.035 Y106.702 E.00076
G1 X120.662 Y106.793 E.01788
G1 X121.121 Y106.878 E.01317
G1 X120.939 Y106.76 E.00612
G1 X120.52 Y106.723 E.01188
